public/svg/nhsx.svg

<svg viewBox="0 0 195 100" xmlns="http://www.w3.org/2000/svg"><path d="m56.893 67.893-8.128-26.639h-.115l-5.278 26.639h-9.696l8.112-38.478h12.852l7.956 26.678h.114l5.336-26.678h9.696l-8.055 38.478zm39.243 0 3.376-16.484h-12.182l-3.376 16.484h-10.308l7.882-38.478h10.308l-2.979 14.726h12.182l2.999-14.726h10.308l-7.883 38.478zm45.354-29.776c-1.993-.937-4.691-1.76-8.497-1.76-4.092 0-7.38.612-7.371 3.691.015 5.451 14.946 3.424 14.98 15.109.03 10.652-9.829 13.406-18.761 13.406-3.977 0-8.552-.937-11.92-1.989l2.406-7.841c2.05 1.319 6.126 2.199 9.492 2.199 3.194 0 8.222-.612 8.21-4.571-.018-6.176-14.947-3.863-14.978-14.725-.029-9.926 8.683-12.909 17.117-12.909 4.743 0 9.219.497 11.804 1.702zm20.132-8.702 2.811 6.618h.057l5.278-6.618h4.552l-7.948 9.18 4.485 10.059h-4.226l-2.968-7.726h-.058l-5.982 7.726h-4.801l8.882-10.442-4.252-8.797z" fill="#003087" transform="matrix(.999996 .002893 -.002893 .999996 .141165 -.300663)"/></svg>

<?xml version="1.0" encoding="utf-8"?>
<svg viewBox="0 0 195 100" xmlns="http://www.w3.org/2000/svg">
  <path d="M 56.893 67.893 L 48.765 41.254 L 48.65 41.254 L 43.372 67.893 L 33.676 67.893 L 41.788 29.415 L 54.64 29.415 L 62.596 56.093 L 62.71 56.093 L 68.046 29.415 L 77.742 29.415 L 69.687 67.893 L 56.893 67.893 Z M 96.136 67.893 L 99.512 51.409 L 87.33 51.409 L 83.954 67.893 L 73.646 67.893 L 81.528 29.415 L 91.836 29.415 L 88.857 44.141 L 101.039 44.141 L 104.038 29.415 L 114.346 29.415 L 106.463 67.893 L 96.136 67.893 Z M 141.49 38.117 C 139.497 37.18 136.799 36.357 132.993 36.357 C 128.901 36.357 125.613 36.969 125.622 40.048 C 125.637 45.499 140.568 43.472 140.602 55.157 C 140.632 65.809 130.773 68.563 121.841 68.563 C 117.864 68.563 113.289 67.626 109.921 66.574 L 112.327 58.733 C 114.377 60.052 118.453 60.932 121.819 60.932 C 125.013 60.932 130.041 60.32 130.029 56.361 C 130.011 50.185 115.082 52.498 115.051 41.636 C 115.022 31.71 123.734 28.727 132.168 28.727 C 136.911 28.727 141.387 29.224 143.972 30.429 L 141.49 38.117 Z M 161.622 29.415 L 164.433 36.033 L 164.49 36.033 L 169.768 29.415 L 174.32 29.415 L 166.372 38.595 L 170.857 48.654 L 166.631 48.654 L 163.663 40.928 L 163.605 40.928 L 157.623 48.654 L 152.822 48.654 L 161.704 38.212 L 157.452 29.415 L 161.622 29.415 Z" style="fill: rgb(0, 48, 135);" transform="matrix(0.999996, 0.002893, -0.002893, 0.999996, 0.141165, -0.300663)"/>
</svg>
